assets/images/check.svg

<svg width="25" height="25" viewBox="0 0 25 25" fill="none" xmlns="http://www.w3.org/2000/svg">
<circle cx="12.5" cy="12.5" r="12" stroke="#004B98"/>
<path fill-rule="evenodd" clip-rule="evenodd" d="M9.87937 16.9492L8.93604 16.0059L6.47927 13.5491C6.10066 13.1704 6.10066 12.5528 6.47927 12.174L6.7351 11.9183C7.11371 11.5396 7.73142 11.5396 8.1101 11.9183L9.87937 13.6875C10.258 14.0662 10.8758 14.0662 11.2544 13.6875L16.8913 8.05063C17.27 7.67192 17.8877 7.67192 18.2664 8.05063L18.5222 8.30636C18.9009 8.68504 18.9009 9.30275 18.5222 9.68143L12.1977 16.0059L11.2544 16.9492C10.8758 17.3278 10.258 17.3278 9.87937 16.9492Z" fill="#004B98"/>
</svg>

<svg width="25" height="25" fill="none" xmlns="http://www.w3.org/2000/svg"><circle cx="12.5" cy="12.5" r="12" stroke="#004B98"/><path fill-rule="evenodd" clip-rule="evenodd" d="m9.88 16.95-.944-.944-2.457-2.457a.974.974 0 0 1 0-1.375l.256-.256a.974.974 0 0 1 1.375 0l1.77 1.77a.974.974 0 0 0 1.374 0l5.637-5.637a.974.974 0 0 1 1.375 0l.256.255a.974.974 0 0 1 0 1.375l-6.324 6.325-.944.943a.974.974 0 0 1-1.375 0Z" fill="#004B98"/></svg>
